my-site/themes/moving-test/assets/images/insta100.svg

<svg width="45" height="45" viewBox="0 0 45 45" fill="none" xmlns="http://www.w3.org/2000/svg">
<circle cx="22.0244" cy="22.0244" r="22.0244" fill="#DE4168"/>
<path d="M22.0243 10.7654C25.0833 10.7654 25.465 10.7766 26.6652 10.8329C27.8643 10.8892 28.6806 11.0773 29.3989 11.3565C30.142 11.6424 30.768 12.0298 31.394 12.6546C31.9665 13.2175 32.4095 13.8983 32.6921 14.6497C32.9702 15.3669 33.1594 16.1843 33.2157 17.3834C33.2686 18.5836 33.2832 18.9652 33.2832 22.0243C33.2832 25.0833 33.2719 25.465 33.2157 26.6652C33.1594 27.8643 32.9702 28.6806 32.6921 29.3989C32.4103 30.1507 31.9671 30.8317 31.394 31.394C30.831 31.9662 30.1502 32.4093 29.3989 32.6921C28.6817 32.9702 27.8643 33.1594 26.6652 33.2157C25.465 33.2686 25.0833 33.2832 22.0243 33.2832C18.9652 33.2832 18.5836 33.2719 17.3834 33.2157C16.1843 33.1594 15.368 32.9702 14.6497 32.6921C13.898 32.4101 13.217 31.9669 12.6546 31.394C12.082 30.8312 11.639 30.1504 11.3565 29.3989C11.0773 28.6817 10.8892 27.8643 10.8329 26.6652C10.78 25.465 10.7654 25.0833 10.7654 22.0243C10.7654 18.9652 10.7766 18.5836 10.8329 17.3834C10.8892 16.1832 11.0773 15.368 11.3565 14.6497C11.6382 13.8978 12.0813 13.2168 12.6546 12.6546C13.2172 12.0818 13.8981 11.6388 14.6497 11.3565C15.368 11.0773 16.1832 10.8892 17.3834 10.8329C18.5836 10.78 18.9652 10.7654 22.0243 10.7654ZM22.0243 16.3948C20.5313 16.3948 19.0994 16.9879 18.0437 18.0437C16.9879 19.0994 16.3948 20.5313 16.3948 22.0243C16.3948 23.5173 16.9879 24.9492 18.0437 26.0049C19.0994 27.0606 20.5313 27.6537 22.0243 27.6537C23.5173 27.6537 24.9492 27.0606 26.0049 26.0049C27.0606 24.9492 27.6537 23.5173 27.6537 22.0243C27.6537 20.5313 27.0606 19.0994 26.0049 18.0437C24.9492 16.9879 23.5173 16.3948 22.0243 16.3948ZM29.3426 16.1134C29.3426 15.7401 29.1943 15.3821 28.9304 15.1182C28.6665 14.8543 28.3085 14.706 27.9352 14.706C27.562 14.706 27.204 14.8543 26.94 15.1182C26.6761 15.3821 26.5279 15.7401 26.5279 16.1134C26.5279 16.4866 26.6761 16.8446 26.94 17.1085C27.204 17.3724 27.562 17.5207 27.9352 17.5207C28.3085 17.5207 28.6665 17.3724 28.9304 17.1085C29.1943 16.8446 29.3426 16.4866 29.3426 16.1134ZM22.0243 18.6466C22.9201 18.6466 23.7792 19.0025 24.4126 19.6359C25.0461 20.2694 25.402 21.1285 25.402 22.0243C25.402 22.9201 25.0461 23.7792 24.4126 24.4126C23.7792 25.0461 22.9201 25.402 22.0243 25.402C21.1285 25.402 20.2694 25.0461 19.6359 24.4126C19.0025 23.7792 18.6466 22.9201 18.6466 22.0243C18.6466 21.1285 19.0025 20.2694 19.6359 19.6359C20.2694 19.0025 21.1285 18.6466 22.0243 18.6466Z" fill="white"/>
</svg>

<svg xmlns="http://www.w3.org/2000/svg" width="45" height="45" fill="none" viewBox="0 0 45 45"><circle cx="22.024" cy="22.024" r="22.024" fill="#de4168"/><path fill="#fff" d="M22.024 10.765c3.06 0 3.441.012 4.641.068s2.016.244 2.734.524a5.5 5.5 0 0 1 1.995 1.298 5.5 5.5 0 0 1 1.298 1.995c.278.717.467 1.534.524 2.733.053 1.2.067 1.582.067 4.641s-.011 3.441-.067 4.641-.246 2.016-.524 2.734a5.5 5.5 0 0 1-1.298 1.995 5.5 5.5 0 0 1-1.995 1.298c-.717.278-1.535.467-2.734.524-1.2.053-1.582.067-4.64.067-3.06 0-3.441-.011-4.642-.067-1.199-.057-2.015-.246-2.733-.524a5.5 5.5 0 0 1-1.995-1.298 5.5 5.5 0 0 1-1.298-1.995c-.28-.717-.468-1.535-.524-2.734-.053-1.2-.068-1.582-.068-4.64 0-3.06.012-3.441.068-4.642.056-1.2.244-2.015.524-2.733a5.5 5.5 0 0 1 1.298-1.995 5.5 5.5 0 0 1 1.995-1.298c.718-.28 1.533-.468 2.733-.524 1.2-.053 1.582-.068 4.641-.068m0 5.63a5.63 5.63 0 1 0 0 11.258 5.63 5.63 0 0 0 0-11.258m7.319-.282a1.407 1.407 0 1 0-2.815 0 1.407 1.407 0 0 0 2.815 0m-7.319 2.534a3.378 3.378 0 1 1 0 6.755 3.378 3.378 0 0 1 0-6.755"/></svg>
